X:15
T:Slithering
R:slide
C:Jim McGraw
O:Co. Fermanagh, Ireland
S:http://www.cranfordpub.com/recordings/mcgraw.htm
D:Melodious Accord, Jim McGraw
Z:psc
H:Having enjoyed playing for Sets Ceilis all over the North with fiddle player, Charlie Woods, I composed these slides with rather zany titles. One particular Set Dance, The Ballyvourney Jig Set consists of five individual figures, and when danced non-stop consists of 552 bars of music. For any beginner, brave enough to undertake such a challenge it generally ended in disaster, like a stray sheep throwing the rest of the flock into disarray.
L:1/8
Q:399
M:12/8
K:Edor
B2 E EDE B,2 E EFG|F2 D DCD Adc BAF|
B2 E EDE B,2 E EFG|[1~F3 ABA FED Edc:|[2~F3 ABA FED E2 z||
||BeB e2 f g2 f e2 c|d2 B ABG FAF DFd|
BeB e2 f g2 f e2 g|f3 A(B/c/d) e3 e2 z|
BeB e2 f g2 f e2 c|d2 B ABG FAF DEF|
E3 FEF GFG AGA|BAB def e3 edc|]
